X:8607
T:King of the Fairies
R:Hornpipe
R:Set Dance
O:Ireland
M:4/4
K:Em
B,2|\
EDEF GFGA|B2BA GFGA|B2E2 EFGE|FGFE D2B,2|\
EDEF GFGA|BAGB d2dc|
B2E2 GFED|E6 ::\
d2|\
e2e2 Bdef|gagf e3f|e2B2 BABc|dedc Bc (3dcB|
e2B2 Bdef gagf efed|Bdeg fedf|e6 ef|\
g3e f3d|edB^c d3e|
dBAF GAB^c|dBAF GFED|\
B,2E2 EFGA|B2e2 edef|e2B2 BAGF E6:|
